icons/yarn.svg

<svg xmlns="http://www.w3.org/2000/svg" width="2202" height="2369"><style/><path id="Layer" d="M1456.38 1813.02c0 39.77-9.13 78.57-14.18 117.36-4.24 34.07-.82 37.98 33.74 31.95 77.75-13.36 148.01-46.13 215.82-84.6 72.53-41.4 141.65-88.51 219.24-119.48 59.98-24.12 121.27-40.1 186.47-40.1 56.57 0 95.85 30.65 102.7 79.06 6.52 44.82-18.1 87.69-63.09 97.15-128.61 27.22-239.61 90.63-347.85 161.05-145.07 93.72-303.02 161.37-467.49 213.21-6.04 1.79-13.86 3.09-17.77 6.84-38.8 41.08-90.14 47.93-141.98 54.77-145.4 19.07-291.78 27.55-438.48 36.19-42.22 2.61-84.6 3.91-126.82-4.24-67.32-13.36-95.85-38.47-106.11-93.73-9.13-49.71 14.18-96.66 63.89-129.1 5.22-3.42 10.76-6.84 19.07-12.06-26.73-16.46-48.73-35.86-65.52-59.98-8.15-11.25-12.55-4.24-15.16 5.21-8.15 31.14-16.47 62.6-24.62 93.73-5.54 20.7-12.55 41.08-21.19 60.8-25.1 57.38-70.74 85.09-131.22 90.63-61.77 5.54-119.97-8.15-175.22-35.37-37.99-18.58-49.23-46.62-36.68-87.7 6.52-22 19.07-41.07 34.07-64.38-52.16 10.43-75.15-19.89-93.24-56.57-40.59-80.36-54.45-165.28-37.98-253.31 13.36-69.92 54.44-126.81 103.67-176.04 28.85-28.85 37.49-56.56 36.68-97.15-6.52-234.4 81.99-426.91 264.23-575.73 15.97-13.37 31.94-27.22 48.73-39.29 10.44-7.33 11.58-12.06 3.1-22.82-47.11-59.17-83.78-123.39-100.57-198.05-19.07-84.11 9.45-157.13 51.83-227.06 6.03-9.46 15.49-14.18 25.92-18.1 53.14-19.07 97.97-47.92 138.55-88.51 91.45-91.44 204.57-133.34 334-127.79 16.46.81 23.8-3.92 28.85-19.4 19.4-56.56 43.52-111.01 75.96-161.38 12.06-19.07 25.43-36.67 42.71-50.85 31.95-26.41 59.17-22.5 80.69 12.55 39.77 63.41 70.41 131.71 101.39 199.84 7.82 17.28 13.85 23.31 31.94 11.58 21.19-13.37 44.83-22.83 68.63-31.14 19.07-6.52 30.15-2.12 38.47 17.77 24.12 58.19 37.16 119.15 44.5 181.75 2.12 17.28 6.03 34.07 3.91 51.35-1.3 37.49.49 75.14.82 113.12 0 16.79-6.04 33.74-.82 50.86-3.91 102.69-31.13 199.84-70.74 293.89-37.17 88.03-91.12 166.11-145.08 244.35-21.19 30.15-20.7 30.64 6.85 55.26 134.64 121.27 208.97 273.68 233.91 451.52.82 6.85.49 14.18.49 21.52-5.54 16.46.49 32.43.81 48.41 1.47 24.29-4.07 48.57.17 72.21z" fill="#3398c2"/></svg>

<svg xmlns="http://www.w3.org/2000/svg" viewBox="0 0 2202 2369" width="2202" height="2369">
	<style>
		tspan { white-space:pre }
		.shp0 { fill: #3398c2 } 
	</style>
	<path id="Layer" class="shp0" d="M1456.38 1813.02C1456.38 1852.79 1447.25 1891.59 1442.2 1930.38C1437.96 1964.45 1441.38 1968.36 1475.94 1962.33C1553.69 1948.97 1623.95 1916.2 1691.76 1877.73C1764.29 1836.33 1833.41 1789.22 1911 1758.25C1970.98 1734.13 2032.27 1718.15 2097.47 1718.15C2154.04 1718.15 2193.32 1748.8 2200.17 1797.21C2206.69 1842.03 2182.07 1884.9 2137.08 1894.36C2008.47 1921.58 1897.47 1984.99 1789.23 2055.41C1644.16 2149.13 1486.21 2216.78 1321.74 2268.62C1315.7 2270.41 1307.88 2271.71 1303.97 2275.46C1265.17 2316.54 1213.83 2323.39 1161.99 2330.23C1016.59 2349.3 870.21 2357.78 723.51 2366.42C681.29 2369.03 638.91 2370.33 596.69 2362.18C529.37 2348.82 500.84 2323.71 490.58 2268.45C481.45 2218.74 504.76 2171.79 554.47 2139.35C559.69 2135.93 565.23 2132.51 573.54 2127.29C546.81 2110.83 524.81 2091.43 508.02 2067.31C499.87 2056.06 495.47 2063.07 492.86 2072.52C484.71 2103.66 476.39 2135.12 468.24 2166.25C462.7 2186.95 455.69 2207.33 447.05 2227.05C421.95 2284.43 376.31 2312.14 315.83 2317.68C254.06 2323.22 195.86 2309.53 140.61 2282.31C102.62 2263.73 91.38 2235.69 103.93 2194.61C110.45 2172.61 123 2153.54 138 2130.23C85.84 2140.66 62.85 2110.34 44.76 2073.66C4.17 1993.3 -9.69 1908.38 6.78 1820.35C20.14 1750.43 61.22 1693.54 110.45 1644.31C139.3 1615.46 147.94 1587.75 147.13 1547.16C140.61 1312.76 229.12 1120.25 411.36 971.43C427.33 958.06 443.3 944.21 460.09 932.14C470.53 924.81 471.67 920.08 463.19 909.32C416.08 850.15 379.41 785.93 362.62 711.27C343.55 627.16 372.07 554.14 414.45 484.21C420.48 474.75 429.94 470.03 440.37 466.11C493.51 447.04 538.34 418.19 578.92 377.6C670.37 286.16 783.49 244.26 912.92 249.81C929.38 250.62 936.72 245.89 941.77 230.41C961.17 173.85 985.29 119.4 1017.73 69.03C1029.79 49.96 1043.16 32.36 1060.44 18.18C1092.39 -8.23 1119.61 -4.32 1141.13 30.73C1180.9 94.14 1211.54 162.44 1242.52 230.57C1250.34 247.85 1256.37 253.88 1274.46 242.15C1295.65 228.78 1319.29 219.32 1343.09 211.01C1362.16 204.49 1373.24 208.89 1381.56 228.78C1405.68 286.97 1418.72 347.93 1426.06 410.53C1428.18 427.81 1432.09 444.6 1429.97 461.88C1428.67 499.37 1430.46 537.02 1430.79 575C1430.79 591.79 1424.75 608.74 1429.97 625.86C1426.06 728.55 1398.84 825.7 1359.23 919.75C1322.06 1007.78 1268.11 1085.86 1214.15 1164.1C1192.96 1194.25 1193.45 1194.74 1221 1219.36C1355.64 1340.63 1429.97 1493.04 1454.91 1670.88C1455.73 1677.73 1455.4 1685.06 1455.4 1692.4C1449.86 1708.86 1455.89 1724.83 1456.21 1740.81C1457.68 1765.1 1452.14 1789.38 1456.38 1813.02L1456.38 1813.02Z" />
</svg>
